X: 827
T: No.2 The sailor's hornpipe
C: anon.
O: Ireland
B: Francis O'Neill: "The Dance Music of Ireland" (1907) no. 827
R: hornpipe
Z: Transcribed by Frank Nordberg - http://www.musicaviva.com
F: http://www.musicaviva.com/abc/tunes/ireland/oneill-1001/oneill-1001-082
7.abc
%Title in index: "Sailor's hornpipe, No. 2"
M: C|
L: 1/8
K: D
(3ABc | dcdA FAdf | edcB A2 (fg) | afaf bagf | edcB A2 (fe) |\
dcdB FAdf | edcB A2 (fg) | afdg bgec | d2 d2 d2 :|
|: (3efg | afaf d2 (ga) | bgbg e2 (fg)  |  afaf bagf |  edcB A2 (fe) |\
dcdA FAdf | edcB A2 (fg) | afdg bgec | d2 d2 d2 :|
W:
W:
W: From Musica Viva - http://www.musicaviva.com
W: the Internet center for free sheet music downloads.


